svgs/sharp-regular/subscript.svg

<svg xmlns="http://www.w3.org/2000/svg" viewBox="0 0 512 512"><!--! Font Awesome Pro 6.4.0 by @fontawesome - https://fontawesome.com License - https://fontawesome.com/license (Commercial License) Copyright 2023 Fonticons, Inc. --><path d="M24 64H0v48H24 51.2l96 144-96 144H24 0v48H24 64 76.8L84 437.3l92-138 92 138 7.1 10.7H288h40 24V400H328 300.8l-96-144 96-144H328h24V64H328 288 275.2L268 74.7l-92 138L84 74.7 76.8 64H64 24zM408 288H384v48h24 16V464H408 384v48h24 16 48 16 24V464H488 472V312 288H448 408z"/></svg>

<svg xmlns="http://www.w3.org/2000/svg" viewBox="0 0 512 512"><!--! Font Awesome Pro 6.6.0 by @fontawesome - https://fontawesome.com License - https://fontawesome.com/license (Commercial License) Copyright 2024 Fonticons, Inc. --><path d="M24 64L0 64l0 48 24 0 27.2 0 96 144-96 144L24 400 0 400l0 48 24 0 40 0 12.8 0L84 437.3l92-138 92 138 7.1 10.7 12.8 0 40 0 24 0 0-48-24 0-27.2 0-96-144 96-144 27.2 0 24 0 0-48-24 0-40 0-12.8 0L268 74.7l-92 138L84 74.7 76.8 64 64 64 24 64zM408 288l-24 0 0 48 24 0 16 0 0 128-16 0-24 0 0 48 24 0 16 0 48 0 16 0 24 0 0-48-24 0-16 0 0-152 0-24-24 0-40 0z"/></svg>
